dist/icons/sunshade-sun-sand-small.svg

<svg width="24" height="24" xmlns="http://www.w3.org/2000/svg"><path fill-rule="evenodd" clip-rule="evenodd" d="m18.5001,4c-1.3809,0-2.5,1.11914-2.5,2.5s1.1191,2.5,2.5,2.5c1.3808,0,2.5-1.11914,2.5-2.5s-1.1192-2.5-2.5-2.5zm-3.5,2.5c0-1.93314,1.5668-3.5,3.5-3.5,1.9331,0,3.5,1.56686,3.5,3.5s-1.5669,3.5-3.5,3.5c-1.9332,0-3.5-1.56686-3.5-3.5zM5.2515,7.87193c3.10816-1.795,7.0839-.73001,8.8789,2.37907l.25.433-.433.25-4.78858,2.7645L12.8091,21h9.191v1H2.00008v-1h9.69102l-3.39988-6.8006L3.55438,16.934l-.43312.2501-.24995-.4332c-1.79341-3.1082-.72971-7.08145,2.3773-8.8773m.50289.86435c-.00001.00001-.00003.00002-.00004.00003l-.00007.00004c-.00004.00002-.00008.00004-.00011.00006-.46501.26831-.7785.96679-.70933,2.11932.06006,1.0006.40952,2.2198,1.05345,3.455l4.3115-2.4891c-.74772-1.1754-1.62877-2.08772-2.46532-2.64012-.96335-.63614-1.72498-.71392-2.19008-.44523zm2.19355-.71011c.18544.09487.36858.20266.54757.32086.98375.6496,1.96738,1.6855,2.78108,2.9742l1.7212-.9937c-1.1666-1.65693-3.12023-2.49636-5.04985-2.30136zM5.22863,14.8128c-.70913-1.349-1.11426-2.7188-1.18488-3.8955-.01285-.2142-.01463-.4267-.00406-.6347-1.13403,1.5737-1.38388,3.6852-.53275,5.5241l1.72169-.9939z"/></svg>

<svg width="24" height="24" xmlns="http://www.w3.org/2000/svg"><path fill-rule="evenodd" clip-rule="evenodd" d="m18.5,4C17.1191,4,16,5.11914,16,6.5S17.1191,9,18.5,9C19.8808,9,21,7.88086,21,6.5S19.8808,4,18.5,4zM15,6.5C15,4.56686,16.5668,3,18.5,3,20.4331,3,22,4.56686,22,6.5S20.4331,10,18.5,10C16.5668,10,15,8.43314,15,6.5zM5.25138,7.87193c3.10816-1.795,7.08382-.73001,8.87892,2.37907l.25.433-.433.25-4.7886,2.7645L12.809,21H22v1H1.99996v-1H11.691l-3.3999-6.8006L3.55425,16.934l-.43312.2501-.24994-.4332c-1.79342-3.1082-.72972-7.08145,2.37729-8.8773m.5029.86435c-.00002.00001-.00003.00002-.00005.00003l-.00006.00004-.00012.00006c-.465.26831-.77849.96679-.70932,2.11932.06006,1.0006.40952,2.2198,1.05345,3.455l4.31152-2.4891c-.74774-1.1754-1.62879-2.08772-2.46534-2.64012-.96336-.63614-1.72498-.71392-2.19008-.44523zm2.19355-.71011c.18544.09487.36858.20266.54756.32086.98375.6496,1.96741,1.6855,2.78111,2.9742l1.7212-.9937c-1.1666-1.65693-3.12025-2.49636-5.04987-2.30136zM5.22851,14.8128c-.70914-1.349-1.11426-2.7188-1.18489-3.8955-.01285-.2142-.01462-.4267-.00405-.6347-1.13403,1.5737-1.38388,3.6852-.53275,5.5241l1.72169-.9939z"/></svg>
